X: 20482
M: C|
L: 1/8
K: G
gd |\
|: AB |\
c2c2 c2AB | cBAG GFED | d2d2 d2ef | gfed cBAG |\
c2e2 efge | d2B2 Bdef | gdBd dcAF | G2G2 G2 :|


